X: 85
T:Blaze Away in C
M:6/8
L:1/8
Q:1/4=180
K:C
g^fa g3|G^FA G3|B2  _B A2  _A|G2 z g3|g^fa ged|
cBd cBA|B2 ^A B2 ^A|B3-B2 z|a^gb afe|
d^ce dBG|c2 B c2 B|c2 z  g3|g^fa ged|
cBd cBA|B2 ^A B2 ^A|B3-B dd|d2 ^d e2 _e|
=d2 ^d =e2 _e|d2 c' b2 a|ggg ggg|
G3 A3|B3 f3|e3-e2 d|c2 c B2 _B|A3 =B3|
^c3 g3|f3-f2 e|d6|Bcd   Bcd|B2 B B3|ABc ABc|
A2 A A G^F|G3-GG^F|G3-G2 z|G^FG  _A GF|GGG GGG||
G3 A3|B3 f3|e3-e2 d|c2 c B2 _B|A3 =B3|
^c3 g3|f3-f2 e|d6|Bcd   Bcd|B2 B B3|ABc ABc|
A2 A A3|c3 ^F3|GAG EDC|E3 D3|C6||
